src/assets/icons/svg/home.svg

<svg width="24" height="24" viewBox="0 0 24 24" fill="none" xmlns="http://www.w3.org/2000/svg">
<path d="M23.7276 11.0819L13.9593 1.24922C13.9468 1.23657 13.9338 1.22428 13.9206 1.21238C12.8539 0.254675 11.2421 0.251254 10.1714 1.20446C10.1581 1.21632 10.1452 1.22855 10.1325 1.24111L0.275245 11.079C-0.0912241 11.4448 -0.0918335 12.0384 0.273932 12.4049C0.639745 12.7713 1.23332 12.7719 1.59974 12.4062L2.34374 11.6636V19.7582C2.34374 21.8259 4.02599 23.5082 6.09374 23.5082H9.46874C9.98653 23.5082 10.4062 23.0885 10.4062 22.5707V14.9301H13.6875V22.5707C13.6875 23.0885 14.1072 23.5082 14.625 23.5082H17.9062C19.974 23.5082 21.6562 21.8259 21.6562 19.7582C21.6562 19.2404 21.2365 18.8207 20.7187 18.8207C20.201 18.8207 19.7812 19.2404 19.7812 19.7582C19.7812 20.7921 18.9401 21.6332 17.9062 21.6332H15.5625V13.9926C15.5625 13.4748 15.1428 13.0551 14.625 13.0551H9.46874C8.95096 13.0551 8.53124 13.4748 8.53124 13.9926V21.6332H6.09374C5.05987 21.6332 4.21874 20.7921 4.21874 19.7582V9.82068C4.21874 9.81131 4.2186 9.80198 4.21832 9.7927L11.435 2.59031C11.7862 2.29205 12.3014 2.29317 12.6512 2.59289L19.7812 9.76992V15.0707C19.7812 15.5885 20.201 16.0082 20.7187 16.0082C21.2365 16.0082 21.6562 15.5885 21.6562 15.0707V11.6572L22.3974 12.4034C22.5807 12.5878 22.8215 12.6801 23.0625 12.6801C23.3014 12.6801 23.5404 12.5893 23.7232 12.4077C24.0906 12.0427 24.0925 11.4492 23.7276 11.0819Z" fill="black"/>
</svg>

<?xml version="1.0" encoding="iso-8859-1"?>
<!-- Generator: Adobe Illustrator 23.1.0, SVG Export Plug-In . SVG Version: 6.00 Build 0)  -->
<svg version="1.1" id="&#x421;&#x43B;&#x43E;&#x439;_1"
	 xmlns="http://www.w3.org/2000/svg" xmlns:xlink="http://www.w3.org/1999/xlink" x="0px" y="0px" viewBox="0 0 24 24"
	 style="enable-background:new 0 0 24 24;" xml:space="preserve">
<path d="M23.728,11.082l-9.768-9.833c-0.012-0.013-0.026-0.025-0.039-0.037c-1.067-0.958-2.679-0.961-3.749-0.008
	c-0.013,0.012-0.026,0.024-0.039,0.037l-9.857,9.838c-0.366,0.366-0.367,0.959-0.001,1.326c0.366,0.366,0.959,0.367,1.326,0.001
	l0.744-0.743v8.095c0,2.068,1.682,3.75,3.75,3.75h3.375c0.518,0,0.937-0.42,0.937-0.938V14.93h3.281v7.641
	c0,0.518,0.42,0.938,0.938,0.938h3.281c2.068,0,3.75-1.682,3.75-3.75c0-0.518-0.42-0.938-0.938-0.938
	c-0.518,0-0.938,0.42-0.938,0.938c0,1.034-0.841,1.875-1.875,1.875h-2.344v-7.641c0-0.518-0.42-0.938-0.938-0.938H9.469
	c-0.518,0-0.938,0.42-0.938,0.938v7.641H6.094c-1.034,0-1.875-0.841-1.875-1.875V9.821c0-0.009,0-0.019,0-0.028l7.217-7.202
	c0.351-0.298,0.866-0.297,1.216,0.003l7.13,7.177v5.301c0,0.518,0.42,0.938,0.938,0.938c0.518,0,0.938-0.42,0.938-0.938v-3.413
	l0.741,0.746c0.183,0.184,0.424,0.277,0.665,0.277c0.239,0,0.478-0.091,0.661-0.272C24.091,12.043,24.093,11.449,23.728,11.082z"/>
</svg>
